X:1
T: Bells of Rockland
C:
R:Reel
Q:232
K:D
M:4/4
L:1/8
|:((3DDD) D2 FE DE|((3AAA) A2 cB Ac|((3ddd) d2 fe df|ed cB AG FE|
((3DDD) D2 FE DE|((3AAA) A2 cB Ac|((3ddd) df ed ce|d2d2 d2z2:|
|:e^d ef ge cA|fe fg af dA|bg db af db|ag eb af df|
e^d ef ge cA|fe fg af dA|bg db af db|ag ec d2d2:|
